X:329
T: "Der Kreuzzug"
N: Z1009
O: Europa, Mitteleuropa, Deutschland, Rhein
R: Romanze, Ballade, Maria, geistlich
M: 6/8
L: 1/16
K: G
D2 | G2G2A2_B2A2B2 | G6F4
D2 | G2G2A2_B2A2G2 | A6-A4
D2 | G2G2A2_B2A2B2 | G6F4
D2 | G2G2A2_B2A2G2 | A6z4
GA | _B2A2B2c2B2c2 | d6c4
_B2 | A2_B2G2F2G2A2 | G6z4

